X: 25025
T: Maid's Complaint, The
R: slip jig
M: 9/8
K: Gmajor
|:E|D2 B, B,2 G FED|E2 F G2 A BGE|D2 B, B,2 G FED|1 E2 G AGF G2:|2 E2 G DB,G, G,2||
|:G|B2 G G2 B BAG|A2 F F2 A AGF|G2 E E2 G FED|1 E2 G AGF G2:|2 E2 G DB,G, G,2||

